X:1
T:Peerless -- Hornpipe
R:hornpipe
B:Cole's 1000 Fiddle Tunes
M:2/4
L:1/16
K:C
uG2|cGEG CGEG|FGDG FGDG|(EG)cd (ec)fe|dcBA .G2((3uGAB)|
vcGEG CGEG|FGDG FGDG|(EG)cd ("4"ed)cB|c2[c2E2][c2E2]:|
|:(uBc)|dBGB dBgf|"0"ecGc "4"ecag|^fdAd fdba|gafg efd"4"e|
cGEG CGEG|FGDG FGDG|(EG)cd ("4"ed)cB|c2[c2E2][c2E2]:|
